lib/logo_updates/nrk-logo-nrk-radio-title-below-on-dark.svg

<svg width="152" height="104" viewBox="0 0 152 104" fill="none" xmlns="http://www.w3.org/2000/svg">
<path d="M0 43V1.00381H13.7802V43H0ZM32.5283 7.68773L40.4532 43H25.3721L15.9092 1.00381H24.3676C26.3072 0.978642 28.1892 1.66237 29.6607 2.92636C31.1347 4.13734 32.1473 5.81844 32.5283 7.68773ZM42.5233 43V1.00381H56.3035V43H42.5233ZM66.7116 16.9743C65.2267 16.9888 63.7656 16.6003 62.4839 15.8504C61.2193 15.1194 60.1688 14.0689 59.438 12.8041C58.6872 11.5222 58.2986 10.0607 58.3134 8.57511C58.2964 7.09861 58.6853 5.64583 59.438 4.3755C60.1766 3.12447 61.2259 2.08533 62.4839 1.35882C63.766 0.609758 65.2269 0.221301 66.7116 0.234844C68.1877 0.218947 69.6399 0.607751 70.9108 1.35882C72.1562 2.09169 73.1943 3.12996 73.9271 4.3755C74.6789 5.64618 75.0677 7.09873 75.0517 8.57511C75.0655 10.0605 74.6769 11.5218 73.9271 12.8041C73.202 14.0633 72.1627 15.113 70.9108 15.8504C69.6398 16.6029 68.1866 16.9918 66.7097 16.9743H66.7116ZM77.1807 43V1.00381H90.9621V43H77.1807ZM108.408 23.9538C108.447 23.9946 108.742 24.4776 109.295 25.403C109.848 26.3283 110.567 27.5114 111.454 28.952C112.341 30.392 113.277 31.9199 114.262 33.536C115.247 35.1521 116.174 36.6803 117.043 38.1202C117.908 39.5602 118.894 41.1867 120 43H104.859C103.912 41.4621 103.055 40.0721 102.286 38.83C101.517 37.5878 100.7 36.2471 99.8334 34.8077C98.9653 33.3698 98.1071 31.9699 97.2587 30.6081C96.4103 29.2464 95.6813 28.0536 95.0714 27.0297C94.459 26.0051 94.0348 25.3149 93.7989 24.9594C93.2139 24.0771 92.8677 23.058 92.7944 22.0019C92.853 20.9883 93.1791 20.0084 93.7397 19.1619C93.9762 18.7676 94.41 18.0675 95.0409 17.062C95.6717 16.0564 96.411 14.8637 97.2587 13.4835C98.1064 12.1034 98.9647 10.6936 99.8334 9.25431C100.702 7.81501 101.519 6.46432 102.286 5.20247C103.056 3.94193 103.914 2.54205 104.859 1.00285H120L108.289 20.1082C107.926 20.6755 107.722 21.3292 107.697 22.0019C107.736 22.7081 107.983 23.3871 108.406 23.9538H108.408Z" fill="white"/>
<path d="M20.5911 85.6442C21.3779 85.5238 22.1544 85.3425 22.9132 85.1021C24.4509 84.6238 25.871 83.8282 27.0819 82.7666C28.288 81.6895 29.2375 80.356 29.8609 78.864C30.5616 77.148 30.9038 75.3067 30.8661 73.4535C30.8926 71.2918 30.4383 69.151 29.5358 67.1865C28.6035 65.2458 27.0684 63.6589 25.16 62.6622C22.6136 61.4254 19.7983 60.8458 16.9705 60.9767H0V102.96H6.1496V86.8761H15.1956L25.6626 102.96H32.8757L23.06 88.4145L20.5911 85.6442ZM20.6958 66.9194C21.9204 67.3862 22.9444 68.2646 23.5922 69.4039C24.2695 70.7279 24.5953 72.2039 24.5382 73.69C24.612 75.3349 24.2122 76.9665 23.3862 78.3909C22.6043 79.6039 21.4384 80.5198 20.0748 80.9926C18.4302 81.5581 16.6987 81.8284 14.96 81.7909H6.1496V66.1211H15.6686C17.3799 66.0641 19.0863 66.3352 20.6958 66.9194Z" fill="#8BB5EB"/>
<path d="M64.7473 99.2354C64.315 99.2751 63.8794 99.2098 63.4779 99.0448C63.0763 98.8799 62.7207 98.6204 62.4411 98.2884C61.8926 97.341 61.6646 96.2419 61.7908 95.1545L61.9089 82.9744C61.9219 81.6971 61.7628 80.4238 61.4359 79.189C61.1482 78.1065 60.6675 77.0851 60.0168 76.1735C59.3587 75.2826 58.5232 74.5377 57.5629 73.9857C56.447 73.3521 55.2403 72.8936 53.9853 72.6265C52.4507 72.295 50.8839 72.1363 49.314 72.1535C48.0685 72.1526 46.8242 72.2313 45.5887 72.389C44.4214 72.5359 43.2656 72.763 42.1295 73.069C41.076 73.3552 40.0396 73.701 39.0253 74.1048L38.3157 79.131C39.3012 78.7762 40.2379 78.4804 41.1255 78.2439C42.0131 78.0074 42.8701 77.8104 43.6966 77.6527C44.5077 77.4975 45.327 77.3892 46.1505 77.3284C46.958 77.268 47.7562 77.238 48.5453 77.2387C49.751 77.2132 50.9547 77.3527 52.1228 77.6527C52.975 77.8661 53.7586 78.2935 54.3994 78.8945C54.9697 79.4793 55.3773 80.2027 55.582 80.9935C55.8342 81.9687 55.9534 82.9735 55.9366 83.9806L55.9299 85.464L49.0183 85.9319C46.6543 85.998 44.3254 86.5198 42.1591 87.4684C40.5382 88.1779 39.139 89.3117 38.1088 90.7503C37.2348 92.0305 36.7707 93.5462 36.7783 95.0963C36.7672 96.5508 37.1232 97.9845 37.8131 99.265C38.5362 100.581 39.6246 101.659 40.947 102.369C42.5601 103.208 44.3629 103.616 46.1801 103.552C47.8828 103.591 49.5777 103.31 51.1767 102.724C52.5594 102.183 53.8244 101.38 54.902 100.359C55.3109 99.9665 55.699 99.553 56.0649 99.1202C56.18 99.7322 56.3964 100.321 56.7053 100.862C57.232 101.767 58.0427 102.474 59.0115 102.872C60.0822 103.302 61.2282 103.513 62.3819 103.493C62.7367 103.493 63.0817 103.483 63.4168 103.463C63.7459 103.444 64.0725 103.395 64.3924 103.316C64.7078 103.237 64.9927 103.168 65.2499 103.108C65.4815 103.057 65.7088 102.988 65.9299 102.901L66.5802 98.9397C66.2539 99.0519 65.9171 99.1311 65.575 99.1762C65.3005 99.2133 65.0242 99.2331 64.7473 99.2354ZM54.902 96.5746C54.261 97.0815 53.567 97.5177 52.8323 97.8755C52.101 98.2317 51.3259 98.4902 50.5271 98.6442C49.6987 98.8043 48.857 98.8835 48.0133 98.8808C47.0496 98.9082 46.0913 98.7266 45.2045 98.3485C44.4828 98.0356 43.8742 97.5094 43.4601 96.8407C43.0505 96.1319 42.8457 95.3232 42.8687 94.5049C42.8117 93.5191 43.082 92.5423 43.6374 91.7259C44.2815 90.9751 45.1538 90.4558 46.1209 90.2476C47.6319 89.892 49.1826 89.733 50.7343 89.7746H55.9111L55.8844 95.6441C55.584 95.9814 55.2554 96.2934 54.902 96.5746Z" fill="#8BB5EB"/>
<path d="M92.7189 73.5884C92.6587 73.5647 92.6026 73.536 92.5415 73.5124C91.4363 73.0961 90.2993 72.7699 89.1416 72.5367C87.7882 72.2702 86.4113 72.1418 85.032 72.1534C82.4486 72.1376 79.9076 72.8112 77.6712 74.1047C75.3625 75.4471 73.4696 77.4014 72.2016 79.7517C70.7461 82.5286 70.0331 85.6347 70.1319 88.7684C70.0641 91.4736 70.5995 94.16 71.699 96.6327C72.6584 98.7447 74.2227 100.525 76.1939 101.748C78.3133 102.995 80.7414 103.62 83.1998 103.551C84.7081 103.56 86.2104 103.361 87.6643 102.96C89.1132 102.544 90.4965 101.927 91.7738 101.126C92.2163 100.854 92.6609 100.547 93.1024 100.227L93.8444 102.96H98.7513V58.375L92.7198 59.2029L92.7189 73.5884ZM89.5554 97.9038C88.2072 98.4351 86.7762 98.7258 85.3275 98.7623C83.6378 98.8115 81.9652 98.4135 80.4789 97.6084C79.096 96.7908 78.0169 95.5454 77.4042 94.0604C76.637 92.155 76.2744 90.1107 76.3397 88.0576C76.2706 85.9548 76.6747 83.8633 77.5223 81.9376C78.2445 80.375 79.432 79.0739 80.9223 78.2123C82.5439 77.3297 84.37 76.8911 86.2156 76.941C87.1652 76.9388 88.1135 77.0082 89.0528 77.1481C89.9851 77.2924 90.9045 77.5101 91.8024 77.7994C92.0911 77.8911 92.4094 78.0134 92.7189 78.1257V96.3498C91.7129 96.9632 90.6531 97.4833 89.5525 97.9038H89.5554Z" fill="#8BB5EB"/>
<path d="M107.972 102.96H114.003V72.2117L107.972 73.0985V102.96Z" fill="#8BB5EB"/>
<path d="M113.146 59.8237C112.532 59.4486 111.825 59.2538 111.106 59.2619C110.377 59.2562 109.662 59.4505 109.036 59.8237C108.42 60.1848 107.902 60.6926 107.528 61.3019C107.153 61.9158 106.959 62.6228 106.967 63.342C106.961 64.0703 107.155 64.7861 107.528 65.4115C107.89 66.0304 108.41 66.5409 109.036 66.8897C109.668 67.2449 110.381 67.4284 111.106 67.422C111.821 67.4307 112.526 67.2469 113.146 66.8897C113.754 66.5382 114.255 66.027 114.594 65.4115C114.95 64.7801 115.133 64.0666 115.127 63.342C115.135 62.6266 114.951 61.922 114.594 61.3019C114.243 60.6955 113.745 60.1871 113.146 59.8237Z" fill="#8BB5EB"/>
<path d="M149.954 79.3962C148.776 77.1355 146.955 75.2735 144.722 74.0447C142.258 72.7363 139.498 72.085 136.709 72.1535C133.895 72.089 131.112 72.7616 128.637 74.1048C126.353 75.3831 124.485 77.2919 123.256 79.6031C121.922 82.1966 121.261 85.084 121.334 87.9997C121.259 90.8927 121.877 93.7617 123.138 96.3667C124.27 98.6409 126.077 100.51 128.312 101.719C130.717 102.979 133.402 103.609 136.117 103.551C138.959 103.608 141.768 102.936 144.277 101.6C146.62 100.322 148.541 98.391 149.807 96.0414C151.18 93.4176 151.862 90.4872 151.788 87.5267C151.855 84.7069 151.225 81.9141 149.954 79.3962ZM144.366 93.8536C143.702 95.3903 142.576 96.682 141.144 97.5493C139.706 98.3729 138.071 98.792 136.414 98.7624C134.789 98.8027 133.186 98.3711 131.801 97.5197C130.431 96.6091 129.361 95.3132 128.727 93.7954C127.922 91.8475 127.54 89.7513 127.604 87.6448C127.534 85.5957 127.917 83.5564 128.727 81.6725C129.39 80.1921 130.495 78.953 131.89 78.1248C133.382 77.3038 135.066 76.8956 136.768 76.9423C138.097 76.9091 139.418 77.1611 140.642 77.6814C141.713 78.1649 142.648 78.9063 143.363 79.8396C144.124 80.8544 144.677 82.0104 144.988 83.2406C145.358 84.6789 145.537 86.1597 145.52 87.6448C145.589 89.7735 145.195 91.8919 144.366 93.8536Z" fill="#8BB5EB"/>
</svg>

<svg xmlns="http://www.w3.org/2000/svg" viewBox="0 0 152 104"><path fill="#fff" d="M0 43V1.004h13.78V43H0ZM32.528 7.688 40.453 43h-15.08L15.908 1.004h8.459a7.965 7.965 0 0 1 5.293 1.922 8.31 8.31 0 0 1 2.867 4.762ZM42.523 43V1.004h13.78V43h-13.78Zm24.189-26.026a8.213 8.213 0 0 1-4.228-1.124 8.336 8.336 0 0 1-3.046-3.046 8.206 8.206 0 0 1-1.125-4.229 8.056 8.056 0 0 1 1.125-4.2 8.437 8.437 0 0 1 3.046-3.016A8.232 8.232 0 0 1 66.712.235a8.083 8.083 0 0 1 4.199 1.124 8.503 8.503 0 0 1 3.016 3.016 8.075 8.075 0 0 1 1.125 4.2 8.226 8.226 0 0 1-1.125 4.23 8.4 8.4 0 0 1-3.016 3.045 8.059 8.059 0 0 1-4.201 1.124h.002ZM77.18 43V1.004h13.781V43H77.181Zm31.227-19.046c.039.04.334.524.887 1.449.553.925 1.272 2.108 2.159 3.549a1143.28 1143.28 0 0 1 5.589 9.168A854.89 854.89 0 0 0 120 43h-15.141c-.947-1.538-1.804-2.928-2.573-4.17a382.214 382.214 0 0 1-2.453-4.022 351.934 351.934 0 0 0-2.574-4.2 213.445 213.445 0 0 1-2.188-3.578 62.753 62.753 0 0 0-1.272-2.07 6.119 6.119 0 0 1-1.005-2.958 5.744 5.744 0 0 1 .946-2.84c.236-.394.67-1.095 1.3-2.1.632-1.006 1.371-2.198 2.219-3.579.847-1.38 1.706-2.79 2.574-4.229.869-1.439 1.686-2.79 2.453-4.052.77-1.26 1.628-2.66 2.573-4.2H120l-11.711 19.106a3.773 3.773 0 0 0-.592 1.894c.039.706.286 1.385.709 1.952h.002Z"/><path fill="#8BB5EB" d="M20.591 85.644c.787-.12 1.563-.302 2.322-.542a11.509 11.509 0 0 0 4.169-2.335 10.83 10.83 0 0 0 2.779-3.903 13.582 13.582 0 0 0 1.005-5.41 14.584 14.584 0 0 0-1.33-6.267 9.98 9.98 0 0 0-4.376-4.525 16.95 16.95 0 0 0-8.19-1.685H0v41.983h6.15V86.876h9.046l10.467 16.084h7.213L23.06 88.415l-2.469-2.77Zm.105-18.725a5.645 5.645 0 0 1 2.896 2.485 8.68 8.68 0 0 1 .946 4.286 8.602 8.602 0 0 1-1.152 4.7 6.456 6.456 0 0 1-3.311 2.603 14.751 14.751 0 0 1-5.115.798H6.15V66.12h9.519a13.425 13.425 0 0 1 5.027.798ZM64.747 99.235a2.692 2.692 0 0 1-2.306-.947 5.085 5.085 0 0 1-.65-3.133l.118-12.18a14.226 14.226 0 0 0-.473-3.786 9.303 9.303 0 0 0-1.42-3.015 8.02 8.02 0 0 0-2.453-2.188 12.528 12.528 0 0 0-3.578-1.36 21.032 21.032 0 0 0-4.671-.473c-1.245 0-2.49.078-3.725.236a25.583 25.583 0 0 0-3.46.68 28.82 28.82 0 0 0-3.104 1.036l-.71 5.026a34.705 34.705 0 0 1 5.382-1.478c.81-.156 1.63-.264 2.453-.325.808-.06 1.606-.09 2.395-.09 1.206-.025 2.41.115 3.578.415a5.16 5.16 0 0 1 2.276 1.241 4.69 4.69 0 0 1 1.183 2.1c.252.975.371 1.98.355 2.987l-.007 1.483-6.912.468a18.38 18.38 0 0 0-6.859 1.536 9.83 9.83 0 0 0-4.05 3.282 7.641 7.641 0 0 0-1.33 4.346 8.65 8.65 0 0 0 1.034 4.169 7.77 7.77 0 0 0 3.134 3.104 10.538 10.538 0 0 0 5.233 1.183 13.615 13.615 0 0 0 4.997-.828 11.518 11.518 0 0 0 3.725-2.365 16.34 16.34 0 0 0 1.163-1.239 5.6 5.6 0 0 0 .64 1.742 4.764 4.764 0 0 0 2.306 2.01c1.071.43 2.217.641 3.37.621.356 0 .7-.01 1.036-.03.329-.019.656-.068.975-.147.316-.079.6-.148.858-.208.231-.051.459-.12.68-.207l.65-3.961a5.17 5.17 0 0 1-1.005.236c-.275.037-.55.057-.828.06Zm-9.845-2.66c-.641.507-1.335.943-2.07 1.3a9.273 9.273 0 0 1-2.305.77c-.828.16-1.67.239-2.514.236a6.678 6.678 0 0 1-2.808-.532 3.856 3.856 0 0 1-1.745-1.508 4.42 4.42 0 0 1-.591-2.336 4.48 4.48 0 0 1 .768-2.78 4.528 4.528 0 0 1 2.484-1.477 18.03 18.03 0 0 1 4.613-.473h5.177l-.027 5.87c-.3.336-.629.648-.982.93ZM92.719 73.588c-.06-.023-.116-.052-.177-.076a21.93 21.93 0 0 0-3.4-.975 20.384 20.384 0 0 0-4.11-.384 14.525 14.525 0 0 0-7.36 1.952 14.492 14.492 0 0 0-5.47 5.647 18.188 18.188 0 0 0-2.07 9.016 18.232 18.232 0 0 0 1.567 7.865 11.729 11.729 0 0 0 4.495 5.115 13.091 13.091 0 0 0 7.006 1.803c1.508.009 3.01-.19 4.464-.591a16.094 16.094 0 0 0 4.11-1.834c.442-.272.887-.579 1.328-.899l.742 2.733h4.907V58.375l-6.031.828-.001 14.385Zm-3.164 24.316c-1.348.531-2.779.822-4.228.858a9.593 9.593 0 0 1-4.848-1.154 7.4 7.4 0 0 1-3.075-3.548 14.811 14.811 0 0 1-1.064-6.002 14.046 14.046 0 0 1 1.182-6.12 8.349 8.349 0 0 1 3.4-3.726 10.48 10.48 0 0 1 5.294-1.271 18.96 18.96 0 0 1 2.837.207c.932.144 1.852.362 2.75.651.288.092.606.214.916.327V96.35a19.342 19.342 0 0 1-3.166 1.554h.002ZM107.972 102.96h6.031V72.212l-6.031.886v29.862ZM113.146 59.824a3.83 3.83 0 0 0-2.04-.562 3.98 3.98 0 0 0-2.07.562 4.353 4.353 0 0 0-1.508 1.478 3.831 3.831 0 0 0-.561 2.04 3.976 3.976 0 0 0 .561 2.07c.362.618.882 1.129 1.508 1.478a4.148 4.148 0 0 0 2.07.532 3.99 3.99 0 0 0 2.04-.532 3.857 3.857 0 0 0 1.448-1.478 4.143 4.143 0 0 0 .533-2.07 4 4 0 0 0-.533-2.04 4.176 4.176 0 0 0-1.448-1.478ZM149.954 79.396a12.928 12.928 0 0 0-5.232-5.351 16.236 16.236 0 0 0-8.013-1.892 16.148 16.148 0 0 0-8.072 1.952 13.64 13.64 0 0 0-5.381 5.498A17.405 17.405 0 0 0 121.334 88a18.125 18.125 0 0 0 1.804 8.367 12.334 12.334 0 0 0 5.174 5.352 16.078 16.078 0 0 0 7.805 1.832 16.651 16.651 0 0 0 8.16-1.951 13.773 13.773 0 0 0 5.53-5.559 17.426 17.426 0 0 0 1.981-8.514 17.14 17.14 0 0 0-1.834-8.13Zm-5.588 14.458a8.056 8.056 0 0 1-3.222 3.695 9.188 9.188 0 0 1-4.73 1.213 8.412 8.412 0 0 1-4.613-1.242 8.326 8.326 0 0 1-3.074-3.725 14.917 14.917 0 0 1-1.123-6.15c-.07-2.05.313-4.089 1.123-5.972a7.865 7.865 0 0 1 3.163-3.548 9.574 9.574 0 0 1 4.878-1.183 9.309 9.309 0 0 1 3.874.74 7.116 7.116 0 0 1 2.721 2.158 9.586 9.586 0 0 1 1.625 3.4c.37 1.439.549 2.92.532 4.405a14.725 14.725 0 0 1-1.154 6.209Z"/></svg>
